packages/react-icons/icons/airplane.svg

<svg width="24" height="24" viewBox="0 0 24 24" xmlns="http://www.w3.org/2000/svg"><path fill-rule="evenodd" clip-rule="evenodd" d="M14.4918 8.21473L16.8176 5.58964C16.8669 5.534 16.9308 5.4932 17.002 5.47181L18.8149 4.9273C18.9675 4.88147 19.1098 5.02377 19.064 5.17637L18.5195 6.98937C18.4981 7.06057 18.4573 7.1244 18.4017 7.17371L15.7763 9.4999L17.6899 16.2682C17.734 16.4244 17.7272 16.5874 17.6752 16.7354C17.6375 16.8423 17.5762 16.9415 17.4934 17.0245C17.4229 17.0953 17.3048 17.0816 17.2523 16.9966L13.7371 11.3066L9.92902 14.6807L10.5056 18.172C10.5424 18.3944 10.5025 18.6197 10.3973 18.813C10.352 18.8962 10.2947 18.9734 10.2261 19.042L10.09 19.1781C9.99342 19.2747 9.83055 19.2482 9.76961 19.1259L8.13809 15.8527L4.86484 14.2211C4.74257 14.1602 4.71603 13.9973 4.81264 13.9007L4.94872 13.7646C5.01729 13.6961 5.09455 13.6387 5.17771 13.5934C5.37105 13.4882 5.59633 13.4484 5.81877 13.4851L9.31107 14.0619L12.6848 10.2541L6.99411 6.73843C6.90914 6.68594 6.89547 6.56787 6.9662 6.49735C7.04927 6.41453 7.14839 6.35323 7.25534 6.31558C7.40333 6.26349 7.56631 6.2567 7.72251 6.30086L14.4918 8.21473ZM9.91916 10.6613L6.04806 8.26977C4.97409 7.60628 4.80134 6.11396 5.69531 5.22266C6.35432 4.56562 7.31673 4.31558 8.21222 4.56876L13.894 6.17516L15.4704 4.39595C15.7415 4.08992 16.0926 3.86551 16.4842 3.74789L18.2971 3.20338C19.8231 2.74505 21.2462 4.16809 20.7879 5.6941L20.2435 7.50709C20.1259 7.89871 19.9014 8.2498 19.5954 8.52096L17.8158 10.0977L19.422 15.7785C19.6752 16.674 19.4251 17.6364 18.7681 18.2954C17.8768 19.1894 16.3844 19.0166 15.721 17.9427L13.3299 14.0723L11.867 15.3685L12.2816 17.8786C12.4287 18.7694 12.1373 19.6764 11.4989 20.3148L11.3628 20.4509C10.3968 21.4169 8.76808 21.1516 8.15864 19.9289L6.79589 17.1948L4.06186 15.8321C2.83916 15.2227 2.57382 13.5939 3.53985 12.6279L3.67593 12.4918C4.31431 11.8535 5.22134 11.562 6.11208 11.7092L8.62327 12.1239L9.91916 10.6613Z"/></svg>

<svg xmlns="http://www.w3.org/2000/svg" width="24" height="24"><path fill-rule="evenodd" d="m14.492 8.215 2.326-2.625a.4.4 0 0 1 .184-.118l1.813-.545a.2.2 0 0 1 .249.25l-.544 1.812a.4.4 0 0 1-.118.185L15.776 9.5l1.914 6.768a.774.774 0 0 1-.197.756.155.155 0 0 1-.24-.027l-3.516-5.69L9.93 14.68l.577 3.491a1 1 0 0 1-.28.87l-.136.136a.2.2 0 0 1-.32-.052l-1.632-3.273-3.273-1.632a.2.2 0 0 1-.052-.32l.136-.136a1.003 1.003 0 0 1 .87-.28l3.492.577 3.374-3.808-5.69-3.516a.155.155 0 0 1-.029-.24.773.773 0 0 1 .757-.197l6.769 1.914ZM9.919 10.66 6.05 8.27a1.955 1.955 0 0 1-.354-3.047 2.573 2.573 0 0 1 2.517-.654l5.682 1.606 1.576-1.779a2.2 2.2 0 0 1 1.014-.648l1.813-.545c1.526-.458 2.95.965 2.49 2.491l-.543 1.813a2.2 2.2 0 0 1-.649 1.014l-1.78 1.577 1.607 5.68a2.573 2.573 0 0 1-.654 2.517 1.955 1.955 0 0 1-3.047-.352l-2.391-3.87-1.463 1.295.415 2.51a2.8 2.8 0 0 1-.783 2.437l-.136.136a2 2 0 0 1-3.204-.522l-1.363-2.734-2.734-1.363a2 2 0 0 1-.522-3.204l.136-.136a2.8 2.8 0 0 1 2.436-.783l2.511.415L9.92 10.66Z" clip-rule="evenodd"/></svg>
